src/assets/phones.svg

<svg height="24" viewBox="0 0 24 24" width="24" xmlns="http://www.w3.org/2000/svg"><g fill="none" fill-rule="evenodd"><path d="m0 0h24v24h-24z"/><path d="m19.23 15.26-2.54-.29c-.61-.07-1.21.14-1.64.57l-1.84 1.84c-2.83-1.44-5.15-3.75-6.59-6.59l1.85-1.85c.43-.43.64-1.03.57-1.64l-.29-2.52c-.12-1.01-.97-1.77-1.99-1.77h-1.73c-1.13 0-2.07.94-2 2.07.53 8.54 7.36 15.36 15.89 15.89 1.13.07 2.0700975-.87 2.0700975-2v-1.73c.0099025-1.01-.7500975-1.86-1.7600975-1.98z" fill="#f3e7db" fill-rule="nonzero"/></g></svg>

<?xml version="1.0" encoding="UTF-8"?>
<svg width="24px" height="24px" viewBox="0 0 24 24" version="1.1" xmlns="http://www.w3.org/2000/svg" xmlns:xlink="http://www.w3.org/1999/xlink">
    <title>phones</title>
    <g id="La-Nina" stroke="none" stroke-width="1" fill="none" fill-rule="evenodd">
        <g id="phones">
            <polygon id="Path" points="0 0 24 0 24 24 0 24"></polygon>
            <path d="M19.23,15.26 L16.69,14.97 C16.08,14.9 15.48,15.11 15.05,15.54 L13.21,17.38 C10.38,15.94 8.06,13.63 6.62,10.79 L8.47,8.94 C8.9,8.51 9.11,7.91 9.04,7.3 L8.75,4.78 C8.63,3.77 7.78,3.01 6.76,3.01 L5.03,3.01 C3.9,3.01 2.96,3.95 3.03,5.08 C3.56,13.62 10.39,20.44 18.92,20.97 C20.05,21.04 20.9900975,20.1 20.9900975,18.97 L20.9900975,17.24 C21,16.23 20.24,15.38 19.23,15.26 Z" id="Path" fill="#F3E7DB" fill-rule="nonzero"></path>
        </g>
    </g>
</svg>
